assets/subscriptionNew/Vector (2).svg

<svg width="20" height="21" viewBox="0 0 20 21" fill="none" xmlns="http://www.w3.org/2000/svg">
<path d="M9.99306 20.9803C15.5114 20.9803 19.9861 16.5056 19.9861 10.9872C19.9861 5.46881 15.5114 0.994141 9.99306 0.994141C4.47467 0.994141 0 5.46881 0 10.9872C0 16.5056 4.47467 20.9803 9.99306 20.9803ZM5.55864 11.5493L9.30604 7.80191C9.49618 7.61177 9.74462 7.51739 9.99306 7.51739C10.2415 7.51739 10.4899 7.61177 10.6801 7.80191L14.4275 11.5493C14.8064 11.9282 14.8064 12.5445 14.4275 12.9234C14.0486 13.3023 13.4323 13.3023 13.0534 12.9234L9.99306 9.86298L6.93269 12.9234C6.55378 13.3023 5.93754 13.3023 5.55864 12.9234C5.17974 12.5445 5.17974 11.9282 5.55864 11.5493Z" fill="#DCDCDC"/>
</svg>

<svg xmlns="http://www.w3.org/2000/svg" width="20" height="21" fill="none" xmlns:v="https://vecta.io/nano"><path d="M9.993 20.98c5.518 0 9.993-4.475 9.993-9.993S15.511.994 9.993.994 0 5.469 0 10.987s4.475 9.993 9.993 9.993zm-4.434-9.431l3.747-3.747a.97.97 0 0 1 1.374 0l3.747 3.747c.379.379.379.995 0 1.374s-.995.379-1.374 0l-3.06-3.06-3.06 3.06c-.379.379-.995.379-1.374 0s-.379-.995 0-1.374z" fill="#dcdcdc"/></svg>
